!!!COM: Palestrina, Giovanni Perluigi da
!!!OPR: Missa De Beata Marie Virginis (II)
!!!OTL: Kyrie
**kern	**kern	**kern	**kern	**kern
*Ibass	*Itenor	*Itenor	*Icalto	*Icant
!Bassus	!Tenor 2	!Tenor 1	!Altus	!Cantus
*clefF4	*clefGv2	*clefGv2	*clefG2	*clefG2
*k[]	*k[]	*k[]	*k[]	*k[]
*G:mix	*G:mix	*G:mix	*G:mix	*G:mix
*M4/2	*M4/2	*M4/2	*M4/2	*M4/2
=1	=1	=1	=1	=1
0r	0r	0r	0r	1g
.	.	.	.	2b
.	.	.	.	2cc
=2	=2	=2	=2	=2
0r	0r	0r	1r	1dd
.	.	.	1c	[1ee
=3	=3	=3	=3	=3
0r	0r	0r	2e	2ee]
.	.	.	2f	4dd
.	.	.	.	4cc
.	.	.	1g	2b
.	.	.	.	2dd
=4	=4	=4	=4	=4
0r	0r	1r	1a	2.cc
.	.	.	.	4a
.	.	1G	2.g	4b
.	.	.	.	4cc
.	.	.	.	[2dd
.	.	.	8f	.
.	.	.	8e	.
=5	=5	=5	=5	=5
0r	0r	2B	2d	2dd]
.	.	2c	1g	4cc
.	.	.	.	4b
.	.	1d	.	1a
.	.	.	2f#	.
=6	=6	=6	=6	=6
1C	0r	1.e	1.g	2.cc
.	.	.	.	8b
.	.	.	.	8a
2E	.	.	.	2g
2F	.	4d	4f	2a
.	.	4c	4e	.
=7	=7	=7	=7	=7
1G	0r	2B	2d	1b
.	.	1e	2g	.
1A	.	.	2e	1cc
.	.	2c	2f#	.
=8	=8	=8	=8	=8
1.G	2r	2.d	0g	2.b
.	2G	.	.	.
.	.	4c	.	4cc
.	2B	2B	.	2dd
4F	2c	4A	.	2ee
4E	.	4G	.	.
=9	=9	=9	=9	=9
4D	1d	2A	2.f	1ff
4C	.	.	.	.
2D	.	2B	.	.
.	.	.	8e	.
.	.	.	8d	.
1C	1e	1c	1g	2ee
.	.	.	.	[2gg
=10	=10	=10	=10	=10
1r	2d	0r	1a	2gg]
.	2d	.	.	2ff#
2r	4e	.	1g	1gg
.	4f#	.	.	.
2G	4g	.	.	.
.	4d	.	.	.
=11	=11	=11	=11	=11
4A	2f	1r	0r	0r
4B	.	.	.	.
4c	2e	.	.	.
4G	.	.	.	.
2B-	2d	2r	.	.
2A	2e	2c	.	.
=12	=12	=12	=12	=12
2G	2B	4d	0r	1r
.	.	4e	.	.
2F	1c	4f	.	.
.	.	4c	.	.
1G	.	2e	.	2r
.	2B	2d	.	2dd
=13	=13	=13	=13	=13
0r	2A	2c	2r	4ee
.	.	.	.	4ff#
.	2G	2B	2g	4gg
.	.	.	.	4dd
.	1r	1A	4a	2ff
.	.	.	4b	.
.	.	.	4cc	2ee
.	.	.	4a	.
=14	=14	=14	=14	=14
0r	1r	0r	2b-	2dd
.	.	.	2a	2cc
.	2r	.	2g	2.dd
.	2d	.	2f#	.
.	.	.	.	4cc
=15	=15	=15	=15	=15
2r	4e	0r	1g	4b
.	4f#	.	.	4a
2G	4g	.	.	2b
.	4d	.	.	.
4A	2f	.	2r	2a
4B	.	.	.	.
4c	2e	.	2g	2g
4G	.	.	.	.
=16	=16	=16	=16	=16
2B-	2d	2d	2f	0r
2A	2c	4e	2a	.
.	.	4f#	.	.
2G	4d	4g	2b-	.
.	4G	4d	.	.
2F	[2c	2f	2a	.
=17	=17	=17	=17	=17
0G	2c]	2e	1g	1r
.	4B	4d	.	.
.	4A	4c	.	.
.	1B	2d	2r	1dd
.	.	2g	2b	.
=18	=18	=18	=18	=18
0r	0r	2c	2cc	2ee
.	.	2d	2a	2dd
.	.	2e	2g	2b
.	.	2g	2e	[2cc
=19	=19	=19	=19	=19
0r	0r	2a	2f	2cc]
.	.	1g	2g	2b
.	.	.	2d	1a
.	.	2f#	2a	.
=20	=20	=20	=20	=20
1G	2r	2.g	1b	1g
.	2d	.	.	.
.	.	4g	.	.
2C	2e	2g	2cc	2r
2D	2d	4f	2a	[2dd
.	.	4e	.	.
=21	=21	=21	=21	=21
2G	2B	2d	2.g	2dd]
2E	1c	4c	.	2ee
.	.	4B	4e	.
2F#	.	2A	2a	1dd
2G	2B	2d	[2g	.
=22	=22	=22	=22	=22
0D	0A	0d	2g]	2dd
.	.	.	4f#	2.dd
.	.	.	4e	.
.	.	.	1f#	.
.	.	.	.	4cc
.	.	.	.	2a
=23	=23	=23	=23	=23
[0G	[0G	[0d	[0g	[0b
=24	=24	=24	=24	=24
0G]	0G]	0d]	0g]	0b]
=25	=25	=25	=25	=25
0r	0r	0r	0r	1dd
.	.	.	.	2ee
.	.	.	.	2b
=26	=26	=26	=26	=26
0r	0r	0r	2r	2cc
.	.	.	2g	2.dd
.	.	.	2a	.
.	.	.	.	4cc
.	.	.	2e	2cc
=27	=27	=27	=27	=27
0r	0r	1r	2f#	2a
.	.	.	1g	2b
.	.	1d	.	1a
.	.	.	2f#	.
=28	=28	=28	=28	=28
1r	2r	2e	0g	1g
.	2d	2B	.	.
2r	2e	2c	.	2.gg
2G	2B	[2d	.	.
.	.	.	.	4ff
=29	=29	=29	=29	=29
2A	1c	4d]	1r	1ee
.	.	4c	.	.
2E	.	2c	.	.
2F	1d	2A	2r	[1dd
[2G	.	2B	2g	.
=30	=30	=30	=30	=30
4G]	2r	1.A	1a	1dd]
4F	.	.	.	.
2F	1d	.	.	.
2D	.	.	2f	1r
2E	2c	2G	2g	.
=31	=31	=31	=31	=31
1D	1f	1F	2a	2r
.	.	.	2b	2dd
1C	1e	1G	1cc	1gg
=32	=32	=32	=32	=32
2D	0d	1r	2a	2ff#
4G	.	.	1b	2gg
4A	.	.	.	.
4B	.	2r	.	2dd
4c	.	.	.	.
[2d	.	2d	2a	2ff
=33	=33	=33	=33	=33
2d]	0r	1g	2b	1ee
2c	.	.	2cc	.
2d	.	2f#	2a	2.dd
4G	.	2g	2b	.
4A	.	.	.	4cc
=34	=34	=34	=34	=34
4B	2r	2d	1r	2b
4c	.	.	.	.
2d	2d	2f	.	2a
2c	[1g	2e	2r	2cc
2B	.	2d	2g	2dd
=35	=35	=35	=35	=35
1A	2g]	1c	1cc	2ee
.	2f#	.	.	2a
1r	2g	1r	2b	2dd
.	2c	.	2cc	[2ee
=36	=36	=36	=36	=36
0r	2.e	1r	2g	4ee]
.	.	.	.	4ff#
.	.	.	2b-	1gg
.	4d	.	.	.
.	2c	2r	1a	.
.	2d	[2d	.	2ff#
=37	=37	=37	=37	=37
1r	2B	2d]	0g	0gg
.	2.c	2e	.	.
[1G	.	1d	.	.
.	8B	.	.	.
.	8A	.	.	.
.	4B	.	.	.
.	4c	.	.	.
=38	=38	=38	=38	=38
2G]	4d	2B	1r	0r
.	4e	.	.	.
2A	2f	1c	.	.
1G	2e	.	2r	.
.	2d	[2B	[2g	.
=39	=39	=39	=39	=39
2E	2e	2B]	2g]	0r
2F	1d	2A	2a	.
1E	.	2B	2g	.
.	[2c	2c	2e	.
=40	=40	=40	=40	=40
1D	2c]	1d	1f	1dd
.	2B	.	.	.
1C	1c	2G	2e	1ee
.	.	[2c	2c	.
=41	=41	=41	=41	=41
1.G	2r	2c]	2d	1dd
.	1d	4B	2g	.
.	.	4A	.	.
.	.	2B	2g	2b
2C	2e	[2G	[2g	[2cc
=42	=42	=42	=42	=42
1.G	1d	4G]	4g]	2cc]
.	.	4A	4f	.
.	.	4B	2.d	2b
.	.	4c	.	.
.	2B	2d	.	2g
.	.	.	4e	.
2F	[2c	2A	2f	[2a
=43	=43	=43	=43	=43
2E	2c]	2e	1g	2a]
2G	2B	2d	.	1g
1D	1A	1d	1a	.
.	.	.	.	2f#
=44	=44	=44	=44	=44
[0G	[0G	[0d	[0b	[0g
=45	=45	=45	=45	=45
0G]	0G]	0d]	0b]	0g]
=46	=46	=46	=46	=46
0r	1r	1d	0r	0r
.	1d	2d	.	.
.	.	2G	.	.
=47	=47	=47	=47	=47
0r	2d	2.B	0r	1dd
.	2G	.	.	.
.	.	4c	.	.
.	2B	2d	.	2dd
.	2c	2e	.	2g
=48	=48	=48	=48	=48
0r	2d	2d	0r	2b
.	2e	2c	.	2cc
.	2d	2B	.	2dd
.	[2g	[2c	.	2ee
=49	=49	=49	=49	=49
1G	4g]	2c]	0r	2dd
.	4f	.	.	.
.	2e	4B	.	2.gg
.	.	4A	.	.
2G	2d	2B	.	.
.	.	.	.	4ff
2C	[2g	2c	.	[2ee
=50	=50	=50	=50	=50
2E	2g]	2g	0r	2ee]
2F	4f	2a	.	4dd
.	4e	.	.	4cc
2G	2d	2.g	.	2b
2A	2c	.	.	[2cc
.	.	4f#	.	.
=51	=51	=51	=51	=51
1G	1d	1g	2r	2cc]
.	.	.	2g	2b
2C	2.e	2r	2g	[1cc
[2c	.	2g	2c	.
.	4d	.	.	.
=52	=52	=52	=52	=52
4c]	2.c	2g	2e	1cc]
4B	.	.	.	.
2A	.	2c	2f	.
.	4A	.	.	.
2G	2B	2e	2g	1r
2F	[2c	2f	2a	.
=53	=53	=53	=53	=53
1G	2c]	1d	2.g	2r
.	2B	.	.	2dd
.	.	.	4b	.
1r	2c	1r	1a	2ee
.	2d	.	.	2ff
=54	=54	=54	=54	=54
0r	1G	1r	2b	2.gg
.	.	.	2g	.
.	.	.	.	4dd
.	1r	1d	2a	1ff
.	.	.	2b	.
=55	=55	=55	=55	=55
0r	0r	2e	2cc	2ee
.	.	2f	2a	4dd
.	.	.	.	4cc
.	.	2g	1b	4ee
.	.	.	.	4dd
.	.	2d	.	[2dd
=56	=56	=56	=56	=56
1r	0r	2f	2a	2dd]
.	.	2e	2g	2.cc
2r	.	1d	2a	.
.	.	.	.	4b
2G	.	.	4g	2b
.	.	.	4f	.
=57	=57	=57	=57	=57
2A	0r	2c	2e	2a
2B-	.	2d	2d	2.g
2c	.	2e	2c	.
.	.	.	.	4a
2G	.	[2d	4B-	4b-
.	.	.	4A	4cc
=58	=58	=58	=58	=58
1B-	2r	2d]	1G	1dd
.	2d	2G	.	.
1A	2e	1c	1r	1cc
.	2f	.	.	.
=59	=59	=59	=59	=59
4G	2g	2.d	0r	1b-
4A	.	.	.	.
4B-	2d	.	.	.
4c	.	4c	.	.
2d	2f	2B-	.	1r
[2c	2e	2c	.	.
=60	=60	=60	=60	=60
2c]	1d	1G	1r	0r
2B	.	.	.	.
[1c	1e	[1g	2r	.
.	.	.	2c	.
=61	=61	=61	=61	=61
1c]	2c	1g]	2e	2r
.	1e	.	2.g	2g
1r	.	1r	.	2b
.	.	.	4e	.
.	4d	.	2f	[2dd
.	4c	.	.	.
=62	=62	=62	=62	=62
0r	2B	0r	2g	4dd]
.	.	.	.	4b
.	2A	.	2a	2cc
.	2B	.	1g	2dd
.	[2c	.	.	2ee
=63	=63	=63	=63	=63
0r	4c]	1G	2r	1dd
.	4B	.	.	.
.	2B	.	2.g	.
.	1G	2B	.	2.dd
.	.	.	4f	.
.	.	[2d	4d	.
.	.	.	4e	8cc
.	.	.	.	8b
=64	=64	=64	=64	=64
0r	1r	4d]	4f	4a
.	.	4B	4d	4g
.	.	2c	2e	2a
.	2r	2d	2f#	2b
.	2c	2e	2g	2cc
=65	=65	=65	=65	=65
0r	2e	2c	2e	2a
.	2.g	2B	2d	2g
.	.	1A	2c	1cc
.	4e	.	.	.
.	2f#	.	2c	.
=66	=66	=66	=66	=66
1C	1g	2G	1e	2r
.	.	2c	.	1g
2E	1G	2.B	[1g	.
[2G	.	.	.	2b
.	.	8c	.	.
.	.	8d	.	.
=67	=67	=67	=67	=67
4G]	2B	2e	2g]	2b
4E	.	.	.	.
2F#	2.d	2A	2a	2a
2G	.	2r	2b	2dd
.	4B	.	.	.
2A	2c	2e	[2a	4cc
.	.	.	.	4b
=68	=68	=68	=68	=68
2F	2d	2f	4a]	2a
.	.	.	4b	.
2E	2e	2g	4cc	2g
.	.	.	4b	.
2F	2c	2f	2a	4cc
.	.	.	.	4a
2G	2B	2e	[2g	4b
.	.	.	.	4cc
=69	=69	=69	=69	=69
0D	0A	0d	2g]	0dd
.	.	.	4f#	.
.	.	.	4e	.
.	.	.	2f#	.
.	.	.	2f#	.
=70	=70	=70	=70	=70
[0G	[0G	[0d	[0g	[0b
=71	=71	=71	=71	=71
0G]	0G]	0d]	0g]	0b]
==	==	==	==	==
*-	*-	*-	*-	*-
!!!CDT: 1525/^1526/-1594/2/2
!!!OCY: Italia
!!!AGN: Mass (Paraphrase)
!!!AST: renaissance, vocal
!!!ASW: Gregorian Mass
!!!PWK: Masses, Book Mantuan I
!!!RNB: Cadence finals: D
!!!YOR: Le Opere Complete, v. 18, p. 126
!!!YOO: Rome, Italy: Fratelli Scalera
!!!END: 1992//
!!!EED: John Miller
!!!YEC: Copyright 2000, John Miller
!!!YEN: United States of America
!!!YEM: Rights to all derivative electronic formats reserved.
!!!YEM: Refer to licensing agreement for further details.
!!!YEM: This file must be accompanied by the licensing agreement.
!!!YEM: A copy of the licensing agreement may be found at http://www.music-cog.ohio-state.edu/HumdrumDatabases/Palestrina/license.txt
!!!EMD: converted to Humdrum by Bret Aarden
